X:2
T:American Patriot
M:C
L:1/8
K:G
%%MIDI channel 1
%%MIDI program 72
%%MIDI transpose 8
%%MIDI grace 1/8
%%MIDI ratio 3 1
GA|B2G2B2d2|edcB A3B|c2A2c2e2|dcBA B2 G/A/B/c/|d2B2g2d2|e2ee e2 dc|B2AG ecBA|G2F2G2::
(3def|g2d2B2G2|FGAB A2BA|G2B2d2g2|edcB A3B|c2A2c2e2|dcBAB2dc|B2AG ecBA|G2GG G2:|
